src/food-drink/food-prepared/1F9C8.svg

<svg id="emoji" viewBox="0 0 72 72" xmlns="http://www.w3.org/2000/svg">
  <g id="grid">
    <path fill="#b3b3b3" d="M68,4V68H4V4H68m4-4H0V72H72V0Z"/>
    <path fill="none" stroke="#00a5ff" stroke-miterlimit="10" stroke-width="0.1" d="M12.923,10.9583H59.0769A1.9231,1.9231,0,0,1,61,12.8814V59.0352a1.9231,1.9231,0,0,1-1.9231,1.9231H12.9231A1.9231,1.9231,0,0,1,11,59.0352V12.8813A1.923,1.923,0,0,1,12.923,10.9583Z"/>
    <rect x="16" y="4" rx="2.2537" width="40" height="64" fill="none" stroke="#00a5ff" stroke-miterlimit="10" stroke-width="0.1"/>
    <rect x="16" y="4" rx="2.2537" width="40" height="64" transform="translate(72) rotate(90)" fill="none" stroke="#00a5ff" stroke-miterlimit="10" stroke-width="0.1"/>
    <circle cx="36" cy="36" r="29" fill="none" stroke="#00a5ff" stroke-miterlimit="10" stroke-width="0.1"/>
  </g>
  <g id="color">
    <path fill="#fcea2b" d="M19,33a3.416,3.416,0,0,0-3.3141,2.9835l-1.3718,13.033A2.65,2.65,0,0,0,17,52H55a2.65,2.65,0,0,0,2.6859-2.9835l-1.3718-13.033A3.416,3.416,0,0,0,53,33Z"/>
    <polyline fill="#fff" points="12.251 52 60.189 52 58 56 13.616 56 12.251 52"/>
  </g>
  <g id="line">
    <path fill="none" stroke="#000" stroke-linecap="round" stroke-linejoin="round" stroke-width="2" d="M19,33a3.416,3.416,0,0,0-3.3141,2.9835l-1.3718,13.033A2.65,2.65,0,0,0,17,52H55a2.65,2.65,0,0,0,2.6859-2.9835l-1.3718-13.033A3.416,3.416,0,0,0,53,33Z"/>
    <polyline fill="none" stroke="#000" stroke-linecap="round" stroke-linejoin="round" stroke-width="2" points="11.38 52 14.448 52 36 52"/>
    <path fill="none" stroke="#000" stroke-linecap="round" stroke-linejoin="round" stroke-width="2" d="M36,56H15a2.4394,2.4394,0,0,1-1.82-.5833l-.2389-.2381L9.0074,47.17,4.88,47.1514"/>
    <polyline fill="none" stroke="#000" stroke-linecap="round" stroke-linejoin="round" stroke-width="2" points="60.62 52 57.552 52 36 52"/>
    <path fill="none" stroke="#000" stroke-linecap="round" stroke-linejoin="round" stroke-width="2" d="M36,56H57a2.4394,2.4394,0,0,0,1.82-.5833l.2389-.2381,3.934-8.0083,4.1271-.0189"/>
  </g>
</svg>

<svg viewBox="0 0 72 72" xmlns="http://www.w3.org/2000/svg"><path fill="#b3b3b3" d="M68 4v64H4V4h64m4-4H0v72h72V0z"/><path fill="none" stroke="#00a5ff" stroke-miterlimit="10" stroke-width=".1" d="M12.923 10.958h46.154A1.923 1.923 0 0161 12.881v46.154a1.923 1.923 0 01-1.923 1.923H12.923A1.923 1.923 0 0111 59.035V12.881a1.923 1.923 0 011.923-1.923z"/><rect x="16" y="4" rx="2.254" width="40" height="64" fill="none" stroke="#00a5ff" stroke-miterlimit="10" stroke-width=".1"/><rect x="16" y="4" rx="2.254" width="40" height="64" transform="rotate(90 36 36)" fill="none" stroke="#00a5ff" stroke-miterlimit="10" stroke-width=".1"/><circle cx="36" cy="36" r="29" fill="none" stroke="#00a5ff" stroke-miterlimit="10" stroke-width=".1"/><g stroke-linecap="round" stroke-miterlimit="10" stroke-width="6" stroke="#fff" fill="none" stroke-linejoin="round"><path d="M19 33a3.416 3.416 0 00-3.314 2.983l-1.372 13.034A2.65 2.65 0 0017 52h38a2.65 2.65 0 002.686-2.983l-1.372-13.034A3.416 3.416 0 0053 33zm-7.62 19H36"/><path d="M36 56H15a2.44 2.44 0 01-1.82-.583l-.239-.238-3.934-8.009-4.127-.019M60.62 52H36m0 4h21a2.44 2.44 0 001.82-.583l.239-.238 3.934-8.009 4.127-.019"/></g><path fill="#fcea2b" d="M19 33a3.416 3.416 0 00-3.314 2.983l-1.372 13.034A2.65 2.65 0 0017 52h38a2.65 2.65 0 002.686-2.983l-1.372-13.034A3.416 3.416 0 0053 33z"/><path fill="#fff" d="M12.251 52h47.938L58 56H13.616l-1.365-4"/><g fill="none" stroke="#000" stroke-linecap="round" stroke-linejoin="round" stroke-width="2"><path d="M19 33a3.416 3.416 0 00-3.314 2.983l-1.372 13.034A2.65 2.65 0 0017 52h38a2.65 2.65 0 002.686-2.983l-1.372-13.034A3.416 3.416 0 0053 33zm-7.62 19H36"/><path d="M36 56H15a2.44 2.44 0 01-1.82-.583l-.239-.238-3.934-8.009-4.127-.019M60.62 52H36m0 4h21a2.44 2.44 0 001.82-.583l.239-.238 3.934-8.009 4.127-.019"/></g></svg>
